X:1
T:The Barren Rocks of Aden
M:C|
L:1/8
Q:80
C:A. MacKellar
S:March
K:HP
|: e | \
{g}f3/2g/2{fg}f3/2e/2 | \
{Gdc}d{g}f{AGAG}A{Gdc}d | \
{gcd}ce{gAGAG}A3/2e/2 |
{g}f{AGAG}A{Gdc}d3/2e/2 | \
{g}f3/2g/2{fg}f3/2e/2 | \
{Gdc}d{g}f{AGAG}A{Gdc}d |
{gcd}ce{gAGAG}A{g}f3/4e/4 | \
{Gdc}d2{gdc}d :: \
{g}f3/4g/4 |
{ag}a3/2f/2{Gdc}d3/2f/2 | \
{gef}e{g}f{AGAG}A{g}e3/4f/4 | \
{gf}g3/2e/2{gcd}ce |
{Gdc}d{g}f{AGAG}A{g}f3/4g/4 | \
{ag}a3/2f/2{Gdc}d3/2f/2 | \
{gef}e{g}f{AGAG}A{g}e3/4f/4 |
{gf}ge{gcd}c{e}A | \
{Gdc}d2{gdc}d :|
